assets/icons/battery_45.svg

<?xml version="1.0" encoding="UTF-8" standalone="no"?>
<svg
   height="24px"
   viewBox="0 -960 960 960"
   width="24px"
   fill="#e3e3e3"
   version="1.1"
   id="svg1"
   sodipodi:docname="battery_45.svg"
   inkscape:version="1.4.3 (0d15f75042, 2025-12-25)"
   xmlns:inkscape="http://www.inkscape.org/namespaces/inkscape"
   xmlns:sodipodi="http://sodipodi.sourceforge.net/DTD/sodipodi-0.dtd"
   xmlns="http://www.w3.org/2000/svg"
   xmlns:svg="http://www.w3.org/2000/svg">
  <defs
     id="defs1" />
  <sodipodi:namedview
     id="namedview1"
     pagecolor="#ffffff"
     bordercolor="#000000"
     borderopacity="0.25"
     inkscape:showpageshadow="2"
     inkscape:pageopacity="0.0"
     inkscape:pagecheckerboard="0"
     inkscape:deskcolor="#d1d1d1"
     showgrid="false"
     inkscape:zoom="45.254834"
     inkscape:cx="8.0212426"
     inkscape:cy="13.611806"
     inkscape:window-width="2546"
     inkscape:window-height="1401"
     inkscape:window-x="0"
     inkscape:window-y="0"
     inkscape:window-maximized="1"
     inkscape:current-layer="svg1" />
  <path
     id="path1"
     style="stroke-width:1.14591"
     d="M 388.125 -937.42188 L 388.125 -845.9375 L 296.25 -845.9375 C 283.23577 -845.9375 272.31937 -841.57955 263.51562 -832.8125 C 254.71188 -824.04545 250.3125 -813.11623 250.3125 -800.15625 L 250.3125 -68.359375 C 250.3125 -55.399394 254.71188 -44.470171 263.51562 -35.703125 C 272.31937 -26.93608 283.23577 -22.578125 296.25 -22.578125 L 663.75 -22.578125 C 676.76423 -22.578125 687.68063 -26.93608 696.48438 -35.703125 C 705.28811 -44.470171 709.6875 -55.399394 709.6875 -68.359375 L 709.6875 -800.15625 C 709.6875 -813.11623 705.28812 -824.04545 696.48438 -832.8125 C 687.68064 -841.57955 676.76423 -845.9375 663.75 -845.9375 L 571.875 -845.9375 L 571.875 -937.42188 L 388.125 -937.42188 z M 342.1875 -754.45312 L 617.8125 -754.45312 L 617.8125 -402.10938 L 342.1875 -402.10938 L 342.1875 -754.45312 z " />
</svg>

<svg height="24" viewBox="0 -960 960 960" width="24" fill="#e3e3e3" xmlns="http://www.w3.org/2000/svg"><path style="stroke-width:1.14591" d="M388.125-937.422v91.485H296.25c-13.014 0-23.93 4.357-32.734 13.125-8.804 8.767-13.204 19.696-13.204 32.656V-68.36c0 12.96 4.4 23.889 13.204 32.656s19.72 13.125 32.734 13.125h367.5c13.014 0 23.93-4.358 32.734-13.125S709.687-55.4 709.687-68.36v-731.797c0-12.96-4.399-23.89-13.203-32.657s-19.72-13.125-32.734-13.125h-91.875v-91.484zm-45.937 182.969h275.625v352.344H342.188z"/></svg>
